src/icons/svgs/24/calendar-plus.svg

<svg width="24" height="24" viewBox="0 0 24 24" fill="none" xmlns="http://www.w3.org/2000/svg">
<path d="M18.4286 4.5H16.8214V2.9375C16.8214 2.41992 16.3895 2 15.8933 2C15.3971 2 14.8929 2.41992 14.8929 2.9375V4.5H9.10714V2.9375C9.10714 2.41992 8.67723 2 8.14286 2C7.60848 2 7.17857 2.41992 7.17857 2.9375V4.5H5.57143C4.15112 4.5 3 5.61914 3 7V19.5C3 20.8809 4.15112 22 5.57143 22H18.4286C19.8489 22 21 20.8809 21 19.5V7C21 5.61914 19.8469 4.5 18.4286 4.5ZM19.0714 19.5C19.0714 19.8447 18.783 20.125 18.4286 20.125H5.57143C5.21697 20.125 4.92857 19.8447 4.92857 19.5V9.5H19.0714V19.5ZM8.74955 15.7148H11.0357V17.9023C11.0357 18.457 11.4656 18.875 12 18.875C12.5328 18.875 12.9281 18.4555 12.9281 17.9727V15.7148H15.1781C15.7109 15.7148 16.1063 15.2953 16.1063 14.8125C16.1063 14.3297 15.6747 13.9102 15.1781 13.9102H12.9281V11.6523C12.9281 11.168 12.5344 10.75 12 10.75C11.4656 10.75 11.0357 11.168 11.0357 11.6523V13.875H8.74955C8.25134 13.875 7.82143 14.293 7.82143 14.8125C7.82143 15.332 8.25134 15.7148 8.74955 15.7148Z" fill="black"/>
</svg>

<svg width="24" height="24" viewBox="0 0 24 24" xmlns="http://www.w3.org/2000/svg">
    <path d="M18.429 4.5H16.82V2.937A.944.944 0 0 0 15.893 2c-.496 0-1 .42-1 .938V4.5H9.107V2.937A.95.95 0 0 0 8.143 2a.95.95 0 0 0-.964.938V4.5H5.57C4.151 4.5 3 5.62 3 7v12.5C3 20.88 4.151 22 5.571 22H18.43c1.419 0 2.57-1.12 2.57-2.5V7c0-1.38-1.153-2.5-2.571-2.5zm.642 15a.635.635 0 0 1-.642.625H5.57a.635.635 0 0 1-.642-.625v-10H19.07v10zM8.75 15.715h2.286v2.187c0 .555.43.973.964.973.533 0 .928-.42.928-.902v-2.258h2.25c.533 0 .928-.42.928-.902 0-.483-.431-.903-.928-.903h-2.25v-2.258A.91.91 0 0 0 12 10.75c-.534 0-.964.418-.964.902v2.223H8.75a.941.941 0 0 0-.929.938c0 .519.43.902.929.902z"/>
</svg>
